X:1
T:So Gehst, 87.87 D
T:So Gehst, 87.87 D
T:Kornelius Heinrich Dretzel, 1731
T:Public Domain Courtesy of the Cyber Hymnal™
C:Kornelius Heinrich Dretzel, 1731
Z:Public Domain
Z:Courtesy of the Cyber Hymnal™
%%score ( 1 2 ) ( 3 4 )
L:1/8
Q:1/4=110
M:4/4
K:F
V:1 treble 
V:2 treble 
V:3 bass 
V:4 bass 
V:1
|: [DF]4 [FA]2 [FA]2 | [EG]2 [EG]2 [DF]2 [DF]2 | [^CE]4 z2 [CE]2 | [DF]2 [EG]2 [FA]2 [E-B]2 | %4
 G4 F4 :| z2 [EG]2 [EG]2 [EG]2 | [FA]4 z2 [FA]2 | [FA]2 [^FA]2 [GB]4 | z2 [FA]2 [EG]2 [FA]2 | %9
 [EA]2 [DF]2 z2 x4 | D4 z2 [EG]2 | [EG]2 [DG]2 [^CA]4 | z2 [DA]2 [DA]2 [_EA]2 | [DB]4 z2 [FA]2 | %14
 [EG]2 [FA]2 [DG]2 [D-F]2 | E4 D4 |] %16
V:2
|: x8 | x8 | x8 | x8 | (E2 E2) F4 :| x8 | x8 | x8 | x8 | x4 E4 ^C2 | D4 x4 | x8 | x8 | x8 | x8 | %15
 (D2 ^C2) D4 |] %16
V:3
|: [D,A,]4 [D,D]2 [A,,C]2 | [C,C]2 [^C,B,]2 [D,A,]2 A,2 | [A,,A,]4 z2 [A,,A,]2 | %3
 [D,A,]2 [C,C]2 [F,C]2 [B,,D]2 | [C,C]4 [F,,A,]4 :| z2 [C,G,]2 [C,G,]2 [C,C]2 | [F,C]4 z2 [F,C]2 | %7
 [F,C]2 [D,D]2 [G,,D]4 | z2 [A,,C]2 [C,C]2 [F,,C]2 | [G,,B,]2 [D,A,]2 [A,,A,]4 x2 | %10
 [D,^F,]4 z2 [C,G,]2 | [C,C]2 [B,,G,]2 [A,,E,]4 | z2 [D,F,]2 [D,F,]2 [C,C]2 | [B,,F,]4 z2 [F,,C]2 | %14
 [C,C]2 [F,,C]2 [G,,B,]2 [D,A,]2 | [A,,A,]4 [D,^F,]4 |] %16
V:4
|: x8 | x6 (F,,G,,) | x8 | x8 | x8 :| x8 | x8 | x8 | x8 | x10 | x8 | x8 | x8 | x8 | x8 | x8 |] %16

